!!!COM: Bach, Johann Sebastian
!!!CDT: 1685/3//-1750/7/28/
!!!OTL@@DE: Komm, heiliger Geist, Herre Gott
!!!AGN: 4-Part Chorale
!!!SCT: BH 069
!!!SCT: BWV 226
!!!ONB: Transposed down a minor third from original BWV 226 chorale.
**harm	**root	**kern	**kern	**kern	**kern
!	!	!bass	!tenor	!alto	!soprno
*	*Iorgan	*Iorgan	*Iorgan	*Iorgan	*Iorgan
*	*	*clefF4	*clefF4	*clefG2	*clefG2
*M4/4	*M4/4	*M4/4	*M4/4	*M4/4	*M4/4
*met(c)	*met(c)	*met(c)	*met(c)	*met(c)	*met(c)
*MM60	*MM60	*MM60	*MM60	*MM60	*MM60
*k[b-e-a-d-]	*k[b-e-a-d-]	*k[b-e-a-d-]	*k[b-e-a-d-]	*k[b-e-a-d-]	*k[b-e-a-d-]
*A-:	*A-:	*A-:	*A-:	*A-:	*A-:
I	4GG	4A-	4c	4a-	4ee-
=1	=1	=1	=1	=1	=1
IV	4CC	4D-	8d-	4a-	4ff
.	.	.	8c	.	.
V	4DD	4E-	4B-	4g	8ee-
.	.	.	.	.	8dd-
vi	4EE	4F	4A-	4a-	8cc
.	.	.	.	.	8dd-
Ib	4GG	8C	4A-	8e-	4ee-
.	.	8D-	.	8f	.
=2	=2	=2	=2	=2	=2
V;	2DD;	2E-;	2e-;	2g;	2b-;
I	4GG	8A-	4e-	4a-	4cc
.	.	8G	.	.	.
viib/V	4CC#	4F	4A-	4a-	4dd
=3	=3	=3	=3	=3	=3
V;	2DD;	2E-;	2B-;	2g;	2ee-;
r	4r	4r	4r	4r	4r
Ib	4GG	4C	4A-	4a-	4ee-
=4	=4	=4	=4	=4	=4
IV	4CC	4D-	8d-	4a-	4ff
.	.	.	8c	.	.
V	4DD	4E-	8B-	8g	4ee-
.	.	.	8A-	8f	.
V7d	8DD	8D-	8G	4e-	8b-
Ib	8GG	8C	8A-	.	8cc
ii	4AA	4BB-	4D-	8f	4dd-
.	.	.	.	8g	.
=5	=5	=5	=5	=5	=5
Ib	4GG	8C	4E-	4a-	4cc
.	.	8D-	.	.	.
V	4DD	4E-	8e-	4g	4b-
.	.	.	8d-	.	.
I;	4GG;	4AA-;	4c;	4e-;	4a-;
I	4GG	4A-	4c	4e-	4a-
=6	=6	=6	=6	=6	=6
Vb	4DD	4G	4B-	4e-	8b-
.	.	.	.	.	8cc
IVb	4CC	8F	8A-	4f	4dd-
.	.	8G	8B-	.	.
I	4GG	4A-	4c	8e-	8cc
.	.	.	.	8f	8dd-
Vb	4DD	8G	8B-	[4g	[4ee-
.	.	8F	8A-	.	.
!!linebreak: 4
=7	=7	=7	=7	=7	=7
Vb	4DD	8G	4B-	8g]	4ee-]
.	.	8F	.	8a-	.
V	4DD	8E-	4e-	8g	4b-
.	.	8D	.	8f	.
Ib	4GG	8C	4e-	8e-	8a-
.	.	8AA-	.	8c	8g
V/V	4AA	4BB-	8B-	4d	4f
.	.	.	8A-	.	.
=8	=8	=8	=8	=8	=8
V;	2DD;	2E-;	2G;	2B-;	2e-;
r	4r	4r	4r	4r	4r
V	4DD	8E-	4G	4B-	4e-
.	.	8D-	.	.	.
=9	=9	=9	=9	=9	=9
Ib	8GG	8C	4A-	8e-	4a-
IV	8CC	8D-	.	8f	.
viib	4FF#	8C	4d-	4g	4b-
.	.	8BB-	.	.	.
I	4GG	4AA-	8e-	4.a-	8cc
.	.	.	8d-	.	8dd-
I	8GG	8A-	8c	.	[4ee-
vb	8DD	8G-	8B-	8b-	.
=10	=10	=10	=10	=10	=10
V7/ii	4EE	4F	8A	4.cc	4ee-]
.	.	.	8Gy	.	.
ii	4AA	4BB-	4F	.	4dd-
.	.	.	.	8b-	.
V/vi	4BB	4C	4E	8a-	4cc
.	.	.	.	8g	.
iib	4AA	4D-	4F	4f	4b-
=11	=11	=11	=11	=11	=11
V/vi;	2BB;	2C;	2G;	2e;	2cc;
r	4r	4r	4r	4r	4r
vi	4EE	4F	8A-	4a-	8cc
.	.	.	8B-	.	8dd-
=12	=12	=12	=12	=12	=12
viib/V/V	4GG#	4c	4c	8g	4ee-
.	.	.	.	8a	.
V/V	4AA	8B-	4d	4b-	4ff
.	.	8A-	.	.	.
Vb	4DD	8G	4.e-	8b-	4ee-
.	.	8F	.	8a-	.
V	4DD	4E-	.	8g	4b-
.	.	.	8d-	8f	.
!!linebreak: 4
=13	=13	=13	=13	=13	=13
I	4GG	8A-	8c	4e-	4cc
.	.	8G	8B-	.	.
viib/V	4CC#	4F	4A-	4f	4dd
V;	4DD;	4E-;	4B-;	4g;	4ee-;
I	4GG	4A-	4c	8a-	4ee-
.	.	.	.	8g	.
=14	=14	=14	=14	=14	=14
IV	4CC	4D-	4d-	8f	4ff
.	.	.	.	8g	.
Ib	4GG	8C	4e-	4a-	4ee-
.	.	8D-	.	.	.
V	4DD	4E-	4e-	4g	8b-
.	.	.	.	.	8cc
IVb	4CC	8F	8A-	4f	4dd-
.	.	8G	8B-	.	.
=15	=15	=15	=15	=15	=15
I	8GG	8A-	8c	8e-	4cc
IV7	8CC	8D-	8A-	8f	.
V	4DD	4E-	8e-	4g	4b-
.	.	.	8d-	.	.
I;	4GG;	4AA-;	4c;	4e-;	4a-;
IV	4CC	8D-	4d-	4f	4a-
.	.	8C	.	.	.
=16	=16	=16	=16	=16	=16
ii	4AA	4BB-	8d-	4f	8b-
.	.	.	8c	.	8cc
ii	4AA	4B-	4B-	8f	4dd-
.	.	.	.	8g	.
vi	4EE	4F	8c	[2a-	8cc
.	.	.	8B-	.	8dd-
Ib	4GG	8C	8A-	.	[4ee-
.	.	8D-	8B-	.	.
=17	=17	=17	=17	=17	=17
I	4GG	8E-	8c	4a-]	4ee-]
.	.	8F	8d	.	.
Vb	4DD	8G	2e-	4g	4b-
.	.	8E-	.	.	.
Ib	4GG	8c	.	8a-	8a-
.	.	8A-	.	[8e-	8g
V/V	4AA	4B-	8B-	8e-]	4f
.	.	.	8A-	8d	.
=18	=18	=18	=18	=18	=18
V;	2DD;	2E-;	2G;	2B-;	2e-;
r	4r	4r	4r	4r	4r
iii	4BB	4C	4G	8e-	4e-
.	.	.	.	8d-	.
!!linebreak: 4
=19	=19	=19	=19	=19	=19
vi	8EE	4F	8A-	8c	4a-
IVb	8CC	.	8d-	8f	.
Vb	4DD	4G	8c	8e-	4b-
.	.	.	8B-	8d-	.
I	2GG	8A-	4.A-	4.c	8cc
.	.	8B-	.	.	8dd-
.	.	8c	.	.	[4ee-
.	.	8B-	8B-	16d-	.
.	.	.	.	16e-	.
=20	=20	=20	=20	=20	=20
V7b/ii	4EE	8A	4.c	4f	4ee-]
.	.	8F	.	.	.
ii	4AA	4B-	.	4f	4dd-
.	.	.	8B-	.	.
vi	4EE	8F	8A-	4f	4cc
.	.	8E-	8G	.	.
iib	4AA	8D-	4F	8f	4b-
.	.	8C	.	8e-	.
=21	=21	=21	=21	=21	=21
ii7b	4AA	8D-	2B-	2d-	4f
.	.	8BB-	.	.	.
V7	4DD	4E-	.	.	4g
I;	4GG;	4AA-;	4A-;	4c;	4a-;
V	4DD	4E-	4G	4e-	4b-
=22	=22	=22	=22	=22	=22
I	4GG	8AA-	2.A-	[2e-	4cc
.	.	8BB-	.	.	.
Ib	4GG	4C	.	.	4a-
IV	2CC	2D-	.	8e-]	2f
.	.	.	.	8c	.
.	.	.	8A-	4d-	.
.	.	.	8G	.	.
=23	=23	=23	=23	=23	=23
I;	4GG;	4A-;	4A-;	4c;	4e-;
Vb	4DD	4G	2B-	2e-	8b-
.	.	.	.	.	16cc
.	.	.	.	.	16dd-
I	4GG	8A-	.	.	2cc
.	.	8G	.	.	.
vi	4EE	8F	[4A-	[4f	.
.	.	8E-	.	.	.
=24	=24	=24	=24	=24	=24
ii7b	4AA	8D-	4A-]	4f]	2b-
.	.	8BB-	.	.	.
V	4DD	4E-	16G	8e-	.
.	.	.	16F	.	.
.	.	.	8G	8d-	.
I;	4GG;	4AA-;	4E-;	4c;	4a-;
====	====	====	====	====	====
*-	*-	*-	*-	*-	*-
!!chor2scor: -l 4 -s 0.6 -o %b.pmx
!!!ONB1: changed line measure 6, beat 2: vi chord to a IVb chord, since 
!!!ONB2: there is no B and the C is not dissonant and does not resolve.
!!!ONB3: Now m.6, b.2 matches the analysis of m.14, b.4.
!!!YEC: Copyright 1994, David Huron
!!!YEC: Changes/Additions 2001 by Craig Stuart Sapp
!!!YEN: United States of America
!!!SMA: 371 Bach Chorales, edited by Ludwig Erk, C.F. Peters
!!!PDT: 1850, 1865
